assets/images/img_taxi.svg

<svg width="26" height="26" viewBox="0 0 26 26" fill="none" xmlns="http://www.w3.org/2000/svg">
<path d="M23.8794 13.065L18.4438 10.7331L16.38 7.20688L16.315 7.10938C16.1629 6.91936 15.97 6.76595 15.7506 6.66047C15.5312 6.555 15.2909 6.50016 15.0475 6.50001H8.5475C8.27921 6.49916 8.01489 6.56476 7.77813 6.69094C7.54136 6.81712 7.33952 6.99996 7.19063 7.22313L4.43625 11.375H2.4375C2.22201 11.375 2.01535 11.4606 1.86298 11.613C1.7106 11.7654 1.625 11.972 1.625 12.1875V19.5C1.625 19.7155 1.7106 19.9222 1.86298 20.0745C2.01535 20.2269 2.22201 20.3125 2.4375 20.3125H4.17625C4.36335 21.001 4.77181 21.6088 5.33861 22.0421C5.90541 22.4754 6.59904 22.7102 7.3125 22.7102C8.02596 22.7102 8.71959 22.4754 9.28639 22.0421C9.85319 21.6088 10.2616 21.001 10.4487 20.3125H15.5512C15.7384 21.001 16.1468 21.6088 16.7136 22.0421C17.2804 22.4754 17.974 22.7102 18.6875 22.7102C19.401 22.7102 20.0946 22.4754 20.6614 22.0421C21.2282 21.6088 21.6366 21.001 21.8237 20.3125H23.5625C23.778 20.3125 23.9847 20.2269 24.137 20.0745C24.2894 19.9222 24.375 19.7155 24.375 19.5V13.8125C24.3749 13.653 24.3278 13.4971 24.2397 13.3642C24.1515 13.2313 24.0262 13.1272 23.8794 13.065ZM7.3125 21.125C6.99111 21.125 6.67693 21.0297 6.4097 20.8511C6.14247 20.6726 5.93419 20.4188 5.8112 20.1219C5.6882 19.8249 5.65602 19.4982 5.71872 19.183C5.78142 18.8678 5.93619 18.5782 6.16345 18.351C6.39071 18.1237 6.68026 17.9689 6.99548 17.9062C7.3107 17.8435 7.63743 17.8757 7.93436 17.9987C8.23129 18.1217 8.48508 18.33 8.66364 18.5972C8.8422 18.8644 8.9375 19.1786 8.9375 19.5C8.9375 19.931 8.76629 20.3443 8.46155 20.6491C8.1568 20.9538 7.74348 21.125 7.3125 21.125ZM18.6875 21.125C18.3661 21.125 18.0519 21.0297 17.7847 20.8511C17.5175 20.6726 17.3092 20.4188 17.1862 20.1219C17.0632 19.8249 17.031 19.4982 17.0937 19.183C17.1564 18.8678 17.3112 18.5782 17.5385 18.351C17.7657 18.1237 18.0553 17.9689 18.3705 17.9062C18.6857 17.8435 19.0124 17.8757 19.3094 17.9987C19.6063 18.1217 19.8601 18.33 20.0386 18.5972C20.2172 18.8644 20.3125 19.1786 20.3125 19.5C20.3125 19.931 20.1413 20.3443 19.8365 20.6491C19.5318 20.9538 19.1185 21.125 18.6875 21.125ZM22.75 18.6875H21.8237C21.6366 17.999 21.2282 17.3912 20.6614 16.9579C20.0946 16.5246 19.401 16.2898 18.6875 16.2898C17.974 16.2898 17.2804 16.5246 16.7136 16.9579C16.1468 17.3912 15.7384 17.999 15.5512 18.6875H10.4487C10.2616 17.999 9.85319 17.3912 9.28639 16.9579C8.71959 16.5246 8.02596 16.2898 7.3125 16.2898C6.59904 16.2898 5.90541 16.5246 5.33861 16.9579C4.77181 17.3912 4.36335 17.999 4.17625 18.6875H3.25V13H4.875C5.00882 12.9993 5.14041 12.9656 5.25805 12.9018C5.3757 12.838 5.47577 12.7462 5.54938 12.6344L8.56375 8.12501H15.0638L17.2006 11.7813C17.2878 11.9332 17.4217 12.0529 17.5825 12.1225L22.75 14.3488V18.6875Z" fill="#FFE142"/>
</svg>

<svg xmlns="http://www.w3.org/2000/svg" width="26" height="26" fill="none" viewBox="0 0 26 26"><path fill="#FFE142" d="m23.88 13.065-5.436-2.332-2.064-3.526-.065-.098a1.625 1.625 0 0 0-1.268-.609h-6.5a1.625 1.625 0 0 0-1.356.723l-2.755 4.152H2.438a.812.812 0 0 0-.813.813V19.5a.812.812 0 0 0 .813.813h1.738a3.25 3.25 0 0 0 6.273 0h5.102a3.25 3.25 0 0 0 6.273 0h1.738a.812.812 0 0 0 .813-.813v-5.688a.812.812 0 0 0-.496-.747Zm-16.567 8.06a1.625 1.625 0 1 1 0-3.25 1.625 1.625 0 0 1 0 3.25Zm11.375 0a1.625 1.625 0 1 1 0-3.25 1.625 1.625 0 0 1 0 3.25Zm4.062-2.438h-.926a3.25 3.25 0 0 0-6.273 0H10.45a3.25 3.25 0 0 0-6.273 0H3.25V13h1.625a.812.812 0 0 0 .674-.366l3.015-4.509h6.5l2.137 3.656a.812.812 0 0 0 .381.341l5.168 2.227v4.338Z"/></svg>
